web/src/assets/images/logo.svg

<svg xmlns="http://www.w3.org/2000/svg" xmlns:xlink="http://www.w3.org/1999/xlink" width="320" height="320"><defs><path d="M171.81 212.32l121.33-103.35L171.81 5.62v65.52H43.14v75.83h128.67v65.35z" id="prefix__a"/><path d="M174.47 301.06L53.14 197.71 174.47 94.36v65.52h128.67v75.83H174.47v65.35z" id="prefix__b"/></defs><use xlink:href="#prefix__a" fill="#266b9a"/><use xlink:href="#prefix__b" fill="#3e9bcd"/></svg>

<?xml version="1.0" encoding="UTF-8" standalone="no"?>
<!DOCTYPE svg PUBLIC "-//W3C//DTD SVG 1.1//EN" "http://www.w3.org/Graphics/SVG/1.1/DTD/svg11.dtd">
<svg version="1.1" xmlns="http://www.w3.org/2000/svg" xmlns:xlink="http://www.w3.org/1999/xlink" preserveAspectRatio="xMidYMid meet" viewBox="0 0 320 320" width="320" height="320">
<defs><path d="M171.81 212.32L293.14 108.97L171.81 5.62L171.81 71.14L43.14 71.14L43.14 146.97L171.81 146.97L171.81 212.32Z" id="a3NfZpzGbC"></path><path d="M174.47 301.06L53.14 197.71L174.47 94.36L174.47 159.88L303.14 159.88L303.14 235.71L174.47 235.71L174.47 301.06Z" id="aDgpxrwmr"></path></defs><g><g><g><use xlink:href="#a3NfZpzGbC" opacity="1" fill="#266b9a" fill-opacity="1"></use></g><g><use xlink:href="#aDgpxrwmr" opacity="1" fill="#3e9bcd" fill-opacity="1"></use></g></g></g></svg>
